rospo-icon-theme-classic-common/64x64/apps/com.github.mirkobrombin.football.svg

<svg height="64" width="64" xmlns="http://www.w3.org/2000/svg"><path d="m4.0507997 32.000415c-.0118.333995-.050799.661991-.050799.999986 0 15.511778 12.4878213 27.999599 27.9995993 27.999599s27.9996-12.487821 27.9996-27.999599c0-.337995-.04-.665991-.05-.999986-.527992 15.041785-12.775817 26.999614-27.9496 26.999614-15.174183 0-27.4216079-11.957829-27.9496003-26.999614z" opacity=".2"/><rect fill="#fff" height="53" rx="26.5" transform="matrix(0 -1 -1 0 0 0)" width="53" x="-58.5" y="-58.5"/><path d="m16 3c-1.818 0-3.59.3456-5.268 1.0254-1.7364.7041-3.2941 1.7382-4.6304 3.0742-1.3368 1.3364-2.3717 2.8964-3.0762 4.6324-.6156 1.519-.9408 3.117-1 4.754.1814 5.317 3.2915 9.854 7.7832 12.065-.1124-.06-.227-.114-.3379-.178l5.2973.943c.04.026.081.051.125.073.453.231.919.426 1.394.597 7.458-.15 13.434-6.069 13.688-13.5-.06-1.637-.385-3.235-1-4.754-.705-1.736-1.739-3.2964-3.075-4.6324s-2.894-2.3701-4.632-3.0742c-1.678-.6798-3.45-1.0254-5.268-1.0254zm-4.17 1.5703c-.01.0151-.02.0303-.029.0469.016.012.024.0227.033.0254.943.3257 1.801.8058 2.609 1.375l-1.582 4.7654c-.008.003-.015.005-.023.008-.324.134-.654.253-.973.398-1.313.597-2.5942 1.258-3.8005 2.051l-3.1231-1.847c.0046-.098.0214-.195.0547-.284.2097-.558.4171-1.1201.6543-1.6676.1826-.4217.3901-.8304.6172-1.2285.1485-.1641.3023-.3258.4609-.4844 1.483-1.4826 3.2356-2.5357 5.1015-3.1582zm9.131.291c1.569.6388 3.039 1.5962 4.31 2.8672 1.157 1.1568 2.051 2.4765 2.684 3.8865-.783-.539-1.62-.982-2.5-1.344-.137-.056-.277-.105-.42-.154l-4.125-4.6502c.029-.2008.045-.4027.051-.6055zm-1.691 1.0391c.284-.0034.571.0031.859.0234l4.189 4.7222c-.144.456-.285.914-.453 1.36-.296.783-.612 1.558-.927 2.334l-6.086.625c-.073-.096-.148-.191-.227-.281-.718-.814-1.442-1.623-2.164-2.434.007-.008.013-.014.019-.021-.291-.291-.581-.582-.873-.874l1.694-5.0991c.117-.031.235-.0576.353-.0704.921-.0936 1.843-.1985 2.766-.2519.283-.0159.565-.0298.85-.0332zm-14.834 6.2246 3.1602 1.869v.08c-.0081 1.699.1643 3.387.5078 5.049.0012.008.0024.011.0039.018l-2.4512 3.841c-.0533-.027-.1047-.055-.1562-.087-.6744-.424-1.2975-.913-1.8477-1.487-.8403-2.365-.9825-4.923-.4257-7.353.2619-.517.5614-1.013.8984-1.489.1041-.146.1991-.299.3105-.441zm18.578 3.1c.765 1.122 1.489 2.267 2.119 3.472.116.222.232.447.347.674l-3.025 5.641c-.017.004-.033.007-.051.009-1.634.306-3.283.469-4.945.477l-3.018-5.219c.47-.872.935-1.747 1.397-2.623.313-.594.622-1.193.93-1.791zm6.052 2.771c-.226 3.018-1.491 5.972-3.795 8.275-.497.498-1.025.948-1.578 1.348-.091-.733-.249-1.451-.472-2.152l3.131-5.842c.862-.393 1.692-.837 2.464-1.389.101-.071.185-.152.25-.24zm-20.375 1.883c.0542.013.1132.029.1816.047 1.531.41 3.091.701 4.66.929.092.013.169.025.235.032l2.933 5.072c-.509.716-1.024 1.429-1.551 2.133-.087.117-.18.23-.277.342l-6.25-1.116c-.7312-.888-1.3878-1.826-1.9531-2.83-.1439-.255-.3058-.505-.4277-.771z" opacity=".2" transform="matrix(2.00001225 0 0 1.99993487 -.000024 -.970047)"/><path d="m22.57 2.648c-4.489 1.82-8.517 4.496-11.971 7.949-3.455 3.454-6.128 7.483-7.949 11.971-1.758 4.336-2.65 8.918-2.65 13.618 0 4.699.892 9.281 2.65 13.615 1.821 4.489 4.495 8.518 7.949 11.971 3.454 3.455 7.481 6.129 11.971 7.949 4.336 1.76 8.917 2.649 13.617 2.649s9.28-.892 13.616-2.649c4.488-1.82 8.518-4.494 11.971-7.949 3.455-3.453 6.129-7.48 7.949-11.971 1.758-4.334 2.648-8.916 2.648-13.615 0-4.7-.891-9.282-2.648-13.618-1.82-4.488-4.496-8.518-7.949-11.971s-7.479-6.129-11.971-7.949c-4.336-1.757-8.916-2.648-13.616-2.648s-9.281.891-13.617 2.648zm-13.526 48.771c-1.743-1.094-3.349-2.354-4.771-3.838-2.172-6.112-2.54-12.729-1.101-19.01.677-1.335 1.447-2.617 2.318-3.845.269-.379.518-.774.806-1.142l8.166 4.832v.205c-.021 4.392.425 8.752 1.313 13.049.003.02.006.031.01.049l-6.333 9.93c-.138-.07-.275-.146-.408-.23zm24.28 16.787c1.409.719 2.858 1.326 4.347 1.82-6.325.275-12.713-1.207-18.36-4.447l13.689 2.439c.105.067.212.131.324.188zm-.05-2.471-16.154-2.879c-1.89-2.295-3.59-4.723-5.051-7.318-.372-.66-.787-1.301-1.102-1.99l6.327-9.92c.14.035.296.072.473.119 3.958 1.059 7.986 1.812 12.042 2.402.237.033.435.062.604.08l7.584 13.113c-1.316 1.85-2.647 3.69-4.007 5.51-.226.303-.466.594-.716.883zm26.876-5.586c-1.286 1.287-2.651 2.447-4.08 3.481-.237-1.894-.646-3.75-1.223-5.563l8.092-15.096c2.229-1.015 4.379-2.166 6.375-3.593.261-.185.478-.392.646-.618-.586 7.801-3.856 15.436-9.81 21.389zm-.359-19.578c.301.574.598 1.154.896 1.742l-7.816 14.58c-.045.01-.088.02-.133.026-4.225.789-8.484 1.209-12.779 1.229l-7.8-13.487c1.214-2.254 2.417-4.517 3.61-6.781.81-1.536 1.606-3.082 2.401-4.627l16.143-1.658c1.977 2.9 3.85 5.862 5.478 8.976zm-3.275-17.294c-.766 2.023-1.586 4.025-2.401 6.031l-15.726 1.615c-.188-.248-.383-.492-.588-.725-1.857-2.103-3.726-4.193-5.592-6.289.017-.021.034-.037.051-.056-.753-.752-1.508-1.504-2.261-2.258l4.378-13.181c.302-.08.606-.147.913-.18 2.38-.242 4.763-.516 7.149-.654 1.461-.082 2.93-.129 4.416-.024l10.832 12.209c-.373 1.178-.737 2.359-1.171 3.512zm3.634-11.056c2.988 2.99 5.302 6.402 6.938 10.047-2.024-1.393-4.188-2.539-6.463-3.473-.354-.146-.717-.275-1.086-.402l-10.662-12.017c.074-.519.113-1.039.129-1.563 4.056 1.651 7.858 4.123 11.144 7.408zm-34.816-8.039c.042.031.062.057.086.064 2.437.842 4.654 2.082 6.744 3.553l-4.09 12.317c-.021.006-.041.012-.061.021-.837.346-1.69.656-2.514 1.031-3.395 1.543-6.705 3.252-9.823 5.301l-8.071-4.775c.012-.252.055-.508.141-.736.542-1.444 1.075-2.896 1.688-4.311.472-1.09 1.01-2.143 1.597-3.172.384-.424.782-.844 1.192-1.254 3.833-3.832 8.363-6.553 13.186-8.162-.025.039-.051.08-.075.123z" fill="#0b9851" transform="matrix(.77378893 0 0 .77378893 4 4.000415)"/><path d="m32 4c-15.511778 0-28 12.488222-28 28 0 .113554.011285.224034.017578.335938.3515383-15.20154 12.693368-27.335938 27.982422-27.335938s27.630884 12.134398 27.982422 27.335938c.006375-.111904.017578-.222384.017578-.335938 0-15.511778-12.488222-28-28-28z" fill="#fff" opacity=".2"/></svg>

<svg xmlns="http://www.w3.org/2000/svg" width="64" height="64" version="1">
 <path style="opacity:0.2" d="m 4.0507997,32.000415 c -0.0118,0.333995 -0.050799,0.661991 -0.050799,0.999986 C 4.0000007,48.512179 16.487822,61 31.9996,61 47.511378,61 59.9992,48.512179 59.9992,33.000401 c 0,-0.337995 -0.04,-0.665991 -0.05,-0.999986 C 59.421208,47.0422 47.173383,59.000029 31.9996,59.000029 16.825417,59.000029 4.5779921,47.0422 4.0499997,32.000415 Z"/>
 <rect style="fill:#ffffff" width="53" height="53" x="-58.5" y="-58.5" rx="26.5" ry="26.5" transform="matrix(0,-1,-1,0,0,0)"/>
 <g style="opacity:0.2" transform="matrix(0.77378893,0,0,0.77378893,4.0000004,5.029835)">
  <g>
   <path d="M 16,3 C 14.182,3 12.41,3.3456 10.732,4.0254 8.9956,4.7295 7.4379,5.7636 6.1016,7.0996 4.7648,8.436 3.7299,9.996 3.0254,11.732 c -0.6156,1.519 -0.9408,3.117 -1,4.754 0.1814,5.317 3.2915,9.854 7.7832,12.065 -0.1124,-0.06 -0.227,-0.114 -0.3379,-0.178 l 5.2973,0.943 c 0.04,0.026 0.081,0.051 0.125,0.073 0.453,0.231 0.919,0.426 1.394,0.597 7.458,-0.15 13.434,-6.069 13.688,-13.5 -0.06,-1.637 -0.385,-3.235 -1,-4.754 C 28.27,9.996 27.236,8.4356 25.9,7.0996 24.564,5.7636 23.006,4.7295 21.268,4.0254 19.59,3.3456 17.818,3 16,3 Z m -4.17,1.5703 c -0.01,0.0151 -0.02,0.0303 -0.029,0.0469 0.016,0.012 0.024,0.0227 0.033,0.0254 0.943,0.3257 1.801,0.8058 2.609,1.375 l -1.582,4.7654 c -0.008,0.003 -0.015,0.005 -0.023,0.008 -0.324,0.134 -0.654,0.253 -0.973,0.398 -1.313,0.597 -2.5942,1.258 -3.8005,2.051 L 4.9414,11.393 C 4.946,11.295 4.9628,11.198 4.9961,11.109 5.2058,10.551 5.4132,9.9889 5.6504,9.4414 5.833,9.0197 6.0405,8.611 6.2676,8.2129 6.4161,8.0488 6.5699,7.8871 6.7285,7.7285 8.2115,6.2459 9.9641,5.1928 11.83,4.5703 Z m 9.131,0.291 c 1.569,0.6388 3.039,1.5962 4.31,2.8672 1.157,1.1568 2.051,2.4765 2.684,3.8865 -0.783,-0.539 -1.62,-0.982 -2.5,-1.344 -0.137,-0.056 -0.277,-0.105 -0.42,-0.154 L 20.91,5.4668 C 20.939,5.266 20.955,5.0641 20.961,4.8613 Z M 19.27,5.9004 c 0.284,-0.0034 0.571,0.0031 0.859,0.0234 l 4.189,4.7222 c -0.144,0.456 -0.285,0.914 -0.453,1.36 -0.296,0.783 -0.612,1.558 -0.927,2.334 l -6.086,0.625 C 16.779,14.869 16.704,14.774 16.625,14.684 15.907,13.87 15.183,13.061 14.461,12.25 14.468,12.242 14.474,12.236 14.48,12.229 14.189,11.938 13.899,11.647 13.607,11.355 L 15.301,6.2559 C 15.418,6.2249 15.536,6.1983 15.654,6.1855 16.575,6.0919 17.497,5.987 18.42,5.9336 18.703,5.9177 18.985,5.9038 19.27,5.9004 Z m -14.834,6.2246 3.1602,1.869 0,0.08 c -0.0081,1.699 0.1643,3.387 0.5078,5.049 0.0012,0.008 0.0024,0.011 0.0039,0.018 L 5.6567,22.982 C 5.6034,22.955 5.552,22.927 5.5005,22.895 4.8261,22.471 4.203,21.982 3.6528,21.408 2.8125,19.043 2.6703,16.485 3.2271,14.055 3.489,13.538 3.7885,13.042 4.1255,12.566 4.2296,12.42 4.3246,12.267 4.436,12.125 Z m 18.578,3.1 c 0.765,1.122 1.489,2.267 2.119,3.472 0.116,0.222 0.232,0.447 0.347,0.674 l -3.025,5.641 c -0.017,0.004 -0.033,0.007 -0.051,0.009 -1.634,0.306 -3.283,0.469 -4.945,0.477 l -3.018,-5.219 c 0.47,-0.872 0.935,-1.747 1.397,-2.623 0.313,-0.594 0.622,-1.193 0.93,-1.791 l 6.246,-0.64 z m 6.052,2.771 c -0.226,3.018 -1.491,5.972 -3.795,8.275 -0.497,0.498 -1.025,0.948 -1.578,1.348 -0.091,-0.733 -0.249,-1.451 -0.472,-2.152 l 3.131,-5.842 c 0.862,-0.393 1.692,-0.837 2.464,-1.389 0.101,-0.071 0.185,-0.152 0.25,-0.24 z M 8.691,19.879 c 0.0542,0.013 0.1132,0.029 0.1816,0.047 1.531,0.41 3.091,0.701 4.66,0.929 0.092,0.013 0.169,0.025 0.235,0.032 l 2.933,5.072 c -0.509,0.716 -1.024,1.429 -1.551,2.133 -0.087,0.117 -0.18,0.23 -0.277,0.342 l -6.25,-1.116 C 7.8914,26.43 7.2348,25.492 6.6695,24.488 6.5256,24.233 6.3637,23.983 6.2418,23.717 L 8.691,19.879 Z" transform="matrix(2.5847,0,0,2.5846,-5.1694,-7.7539)"/>
  </g>
 </g>
 <g style="fill:#0b9851" transform="matrix(0.77378893,0,0,0.77378893,4.0000004,4.0004147)">
  <g>
   <path d="M 22.57,2.648 C 18.081,4.468 14.053,7.144 10.599,10.597 7.144,14.051 4.471,18.08 2.65,22.568 0.892,26.904 0,31.486 0,36.186 c 0,4.699 0.892,9.281 2.65,13.615 1.821,4.489 4.495,8.518 7.949,11.971 3.454,3.455 7.481,6.129 11.971,7.949 4.336,1.76 8.917,2.649 13.617,2.649 4.7,0 9.28,-0.892 13.616,-2.649 4.488,-1.82 8.518,-4.494 11.971,-7.949 3.455,-3.453 6.129,-7.48 7.949,-11.971 1.758,-4.334 2.648,-8.916 2.648,-13.615 0,-4.7 -0.891,-9.282 -2.648,-13.618 C 67.903,18.08 65.227,14.05 61.774,10.597 58.321,7.144 54.295,4.468 49.803,2.648 45.467,0.891 40.887,0 36.187,0 31.487,0 26.906,0.891 22.57,2.648 Z M 9.044,51.419 C 7.301,50.325 5.695,49.065 4.273,47.581 2.101,41.469 1.733,34.852 3.172,28.571 3.849,27.236 4.619,25.954 5.49,24.726 5.759,24.347 6.008,23.952 6.296,23.584 l 8.166,4.832 0,0.205 c -0.021,4.392 0.425,8.752 1.313,13.049 0.003,0.02 0.006,0.031 0.01,0.049 l -6.333,9.93 C 9.314,51.579 9.177,51.503 9.044,51.419 Z m 24.28,16.787 c 1.409,0.719 2.858,1.326 4.347,1.82 -6.325,0.275 -12.713,-1.207 -18.36,-4.447 L 33,68.018 c 0.105,0.067 0.212,0.131 0.324,0.188 z M 33.274,65.735 17.12,62.856 c -1.89,-2.295 -3.59,-4.723 -5.051,-7.318 -0.372,-0.66 -0.787,-1.301 -1.102,-1.99 l 6.327,-9.92 c 0.14,0.035 0.296,0.072 0.473,0.119 3.958,1.059 7.986,1.812 12.042,2.402 0.237,0.033 0.435,0.062 0.604,0.08 l 7.584,13.113 c -1.316,1.85 -2.647,3.69 -4.007,5.51 -0.226,0.303 -0.466,0.594 -0.716,0.883 z M 60.15,60.149 c -1.286,1.287 -2.651,2.447 -4.08,3.481 -0.237,-1.894 -0.646,-3.75 -1.223,-5.563 l 8.092,-15.096 c 2.229,-1.015 4.379,-2.166 6.375,-3.593 0.261,-0.185 0.478,-0.392 0.646,-0.618 -0.586,7.801 -3.856,15.436 -9.81,21.389 z M 59.791,40.571 c 0.301,0.574 0.598,1.154 0.896,1.742 l -7.816,14.58 c -0.045,0.01 -0.088,0.02 -0.133,0.026 -4.225,0.789 -8.484,1.209 -12.779,1.229 l -7.8,-13.487 c 1.214,-2.254 2.417,-4.517 3.61,-6.781 0.81,-1.536 1.606,-3.082 2.401,-4.627 l 16.143,-1.658 c 1.977,2.9 3.85,5.862 5.478,8.976 z M 56.516,23.277 C 55.75,25.3 54.93,27.302 54.115,29.308 l -15.726,1.615 c -0.188,-0.248 -0.383,-0.492 -0.588,-0.725 -1.857,-2.103 -3.726,-4.193 -5.592,-6.289 0.017,-0.021 0.034,-0.037 0.051,-0.056 -0.753,-0.752 -1.508,-1.504 -2.261,-2.258 L 34.377,8.414 C 34.679,8.334 34.983,8.267 35.29,8.234 37.67,7.992 40.053,7.718 42.439,7.58 43.9,7.498 45.369,7.451 46.855,7.556 l 10.832,12.209 c -0.373,1.178 -0.737,2.359 -1.171,3.512 z M 60.15,12.221 c 2.988,2.99 5.302,6.402 6.938,10.047 C 65.064,20.875 62.9,19.729 60.625,18.795 60.271,18.649 59.908,18.52 59.539,18.393 L 48.877,6.376 c 0.074,-0.519 0.113,-1.039 0.129,-1.563 4.056,1.651 7.858,4.123 11.144,7.408 z M 25.334,4.182 c 0.042,0.031 0.062,0.057 0.086,0.064 2.437,0.842 4.654,2.082 6.744,3.553 l -4.09,12.317 c -0.021,0.006 -0.041,0.012 -0.061,0.021 -0.837,0.346 -1.69,0.656 -2.514,1.031 -3.395,1.543 -6.705,3.252 -9.823,5.301 L 7.605,21.694 c 0.012,-0.252 0.055,-0.508 0.141,-0.736 0.542,-1.444 1.075,-2.896 1.688,-4.311 0.472,-1.09 1.01,-2.143 1.597,-3.172 0.384,-0.424 0.782,-0.844 1.192,-1.254 3.833,-3.832 8.363,-6.553 13.186,-8.162 -0.025,0.039 -0.051,0.08 -0.075,0.123 z"/>
  </g>
 </g>
 <path style="opacity:0.2;fill:#ffffff" d="M 32,4 C 16.488222,4 4,16.488222 4,32 c 0,0.113554 0.011285,0.224034 0.017578,0.335938 C 4.3691163,17.134398 16.710946,5 32,5 47.289054,5 59.630884,17.134398 59.982422,32.335938 59.988797,32.224034 60,32.113554 60,32 60,16.488222 47.511778,4 32,4 Z"/>
</svg>
